X:1
L:1/8
M:4/4
K:G
""^slow"" (3FGA | B3 B c2 Bc | A2 AG/ F/G/A/B/ c>A | d2 d>e d=cAF | G2 GF D2 z D/E/ | 
""^5"" F2 FG A2 fe | d3 ef/e/d/c/ A/G/F/A/ | G3 F D2 D2 | D4 z2 :| de |""^9"" fAde f3 g | 
 a4 Ag/ f/g/a/f/ | g3 f g2 a>f | gfgf d3 A |""^13"" d3 e f3 g | a2 b/a/g fga>f | g3 f d2 d2 | 
 d4 z A/B/d/e/f/g/ |""^17"" a4 Ag/ f/g/a/f/ | g3 e f3 e | d3 c A3 e | 
""^21"" fefg !fermata!a2 b/g/d/B/ | A3 B A/G/F/D/ F/G/A/B/ | c3 e d/c/A/G/ F>A |""^24"" G3 F D2 D2 | 
 D8 |]
